IMB-X-Files/The-Ambassadors-Assets/66101551bae7911a340361d8_﹟05.svg

<svg fill="none" height="104" viewBox="0 0 104 104" width="104" xmlns="http://www.w3.org/2000/svg"><path d="m78.8817 22.3904c7.4521-.49 13.0184 1.1367 15.2994 5.0874 5.3245 9.2224-9.2694 27.6165-32.5965 41.0844-13.3339 7.6983-26.635 12.1207-36.5785 12.7746m53.8756-58.9464c0 1.279-1.0368 2.3157-2.3158 2.3157-1.2789 0-2.3157-1.0367-2.3157-2.3157 0-1.2789 1.0368-2.3157 2.3157-2.3157 1.279 0 2.3158 1.0368 2.3158 2.3157zm-4.5656.5505c-9.2555 1.4993-20.6554 5.6667-32.0133 12.2242-23.3271 13.4679-37.92109 31.862-32.59657 41.0843 1.77897 3.0813 5.55647 4.7489 10.66837 5.1012m4.6314-58.9602c9.9436.654 23.2447 5.0764 36.5785 12.7747 23.3271 13.4679 37.9211 31.862 32.5966 41.0843-2.281 3.9508-7.8473 5.5775-15.2995 5.0874m-53.8756-58.9464c0 1.279-1.0368 2.3158-2.3157 2.3158s-2.3157-1.0368-2.3157-2.3158c0-1.2789 1.0368-2.3157 2.3157-2.3157s2.3157 1.0368 2.3157 2.3157zm-4.6314-.0137c-5.112.3522-8.8894 2.0198-10.66842 5.1011-5.32452 9.2224 9.26942 27.6165 32.59652 41.0844 11.3773 6.5686 22.7441 10.7531 32.0082 12.2457m4.5707.5289c0 1.279-1.0368 2.3158-2.3157 2.3158s-2.3157-1.0368-2.3157-2.3158c0-1.2789 1.0368-2.3157 2.3157-2.3157s2.3157 1.0368 2.3157 2.3157zm-53.8755-.0306c0 1.2789-1.0368 2.3157-2.3157 2.3157-1.279 0-2.3158-1.0368-2.3158-2.3157s1.0368-2.3157 2.3158-2.3157c1.2789 0 2.3157 1.0368 2.3157 2.3157zm46.2195-29.4426c0 26.9359-8.6327 48.7714-19.2817 48.7714-10.6491 0-19.2818-21.8355-19.2818-48.7714 0-26.9358 8.6327-48.77156 19.2818-48.77156 10.649 0 19.2817 21.83576 19.2817 48.77156zm-7.089 0c0 6.734-5.4589 12.1929-12.1929 12.1929-6.7339 0-12.1929-5.4589-12.1929-12.1929.0001-6.7339 5.459-12.1929 12.1929-12.1929 6.734 0 12.1929 5.459 12.1929 12.1929z" stroke="#89cce2" stroke-linecap="round" stroke-linejoin="round"/></svg>

<svg width="104" height="104" viewBox="0 0 104 104" fill="none" xmlns="http://www.w3.org/2000/svg">
    <path
        d="M78.8817 22.3904C86.3338 21.9004 91.9001 23.5271 94.1811 27.4778C99.5056 36.7002 84.9117 55.0943 61.5846 68.5622C48.2507 76.2605 34.9496 80.6829 25.0061 81.3368M78.8817 22.3904C78.8817 23.6694 77.8449 24.7061 76.5659 24.7061C75.287 24.7061 74.2502 23.6694 74.2502 22.3904C74.2502 21.1115 75.287 20.0747 76.5659 20.0747C77.8449 20.0747 78.8817 21.1115 78.8817 22.3904ZM74.3161 22.9409C65.0606 24.4402 53.6607 28.6076 42.3028 35.1651C18.9757 48.633 4.38171 67.0271 9.70623 76.2494C11.4852 79.3307 15.2627 80.9983 20.3746 81.3506M25.006 22.3904C34.9496 23.0444 48.2507 27.4668 61.5845 35.1651C84.9116 48.633 99.5056 67.0271 94.1811 76.2494C91.9001 80.2002 86.3338 81.8269 78.8816 81.3368M25.006 22.3904C25.006 23.6694 23.9692 24.7062 22.6903 24.7062C21.4114 24.7062 20.3746 23.6694 20.3746 22.3904C20.3746 21.1115 21.4114 20.0747 22.6903 20.0747C23.9692 20.0747 25.006 21.1115 25.006 22.3904ZM20.3746 22.3767C15.2626 22.7289 11.4852 24.3965 9.70618 27.4778C4.38166 36.7002 18.9756 55.0943 42.3027 68.5622C53.68 75.1308 65.0468 79.3153 74.3109 80.8079M78.8816 81.3368C78.8816 82.6158 77.8448 83.6526 76.5659 83.6526C75.287 83.6526 74.2502 82.6158 74.2502 81.3368C74.2502 80.0579 75.287 79.0211 76.5659 79.0211C77.8448 79.0211 78.8816 80.0579 78.8816 81.3368ZM25.0061 81.3062C25.0061 82.5851 23.9693 83.6219 22.6904 83.6219C21.4114 83.6219 20.3746 82.5851 20.3746 81.3062C20.3746 80.0273 21.4114 78.9905 22.6904 78.9905C23.9693 78.9905 25.0061 80.0273 25.0061 81.3062ZM71.2256 51.8636C71.2256 78.7995 62.5929 100.635 51.9439 100.635C41.2948 100.635 32.6621 78.7995 32.6621 51.8636C32.6621 24.9278 41.2948 3.09204 51.9439 3.09204C62.5929 3.09204 71.2256 24.9278 71.2256 51.8636ZM64.1366 51.8636C64.1366 58.5976 58.6777 64.0565 51.9437 64.0565C45.2098 64.0565 39.7508 58.5976 39.7508 51.8636C39.7509 45.1297 45.2098 39.6707 51.9437 39.6707C58.6777 39.6707 64.1366 45.1297 64.1366 51.8636Z"
        stroke="#89CCE2" stroke-linecap="round" stroke-linejoin="round" />
</svg>
